icon/checkbox-default.svg

<?xml version="1.0" encoding="UTF-8"?>
<svg viewBox="0 0 18 18" version="1.1" xmlns="http://www.w3.org/2000/svg" xmlns:xlink="http://www.w3.org/1999/xlink">
    <title>icon/checkbox/default</title>
    <defs>
        <path d="M9,17 C9.88426888,17 10.7262647,16.8655579 11.5259875,16.5966736 C12.3257103,16.3277893 13.0589051,15.9487179 13.7255717,15.4594595 C14.3922384,14.970201 14.970201,14.3922384 15.4594595,13.7255717 C15.9487179,13.0589051 16.3277893,12.3257103 16.5966736,11.5259875 C16.8655579,10.7262647 17,9.88426888 17,9 C17,8.11573112 16.8655579,7.27373527 16.5966736,6.47401247 C16.3277893,5.67428967 15.9487179,4.94109494 15.4594595,4.27442827 C14.970201,3.60776161 14.3922384,3.02979903 13.7255717,2.54054054 C13.0589051,2.05128205 12.3257103,1.67221067 11.5259875,1.4033264 C10.7262647,1.13444213 9.88426888,1 9,1 C8.11573112,1 7.27373527,1.13444213 6.47401247,1.4033264 C5.67428967,1.67221067 4.94109494,2.05128205 4.27442827,2.54054054 C3.60776161,3.02979903 3.02979903,3.60776161 2.54054054,4.27442827 C2.05128205,4.94109494 1.67221067,5.67428967 1.4033264,6.47401247 C1.13444213,7.27373527 1,8.11573112 1,9 C1,9.88426888 1.13444213,10.7262647 1.4033264,11.5259875 C1.67221067,12.3257103 2.05128205,13.0589051 2.54054054,13.7255717 C3.02979903,14.3922384 3.60776161,14.970201 4.27442827,15.4594595 C4.94109494,15.9487179 5.67428967,16.3277893 6.47401247,16.5966736 C7.27373527,16.8655579 8.11573112,17 9,17 Z M9,15.960499 C8.22938323,15.960499 7.4961885,15.8433818 6.8004158,15.6091476 C6.1046431,15.3749134 5.46638947,15.045045 4.88565489,14.6195426 C4.3049203,14.1940402 3.8018018,13.6909217 3.37629938,13.1101871 C2.95079695,12.5294525 2.62092862,11.8911989 2.38669439,11.1954262 C2.15246015,10.4996535 2.03534304,9.76784477 2.03534304,9 C2.03534304,8.22938323 2.15246015,7.4961885 2.38669439,6.8004158 C2.62092862,6.1046431 2.95079695,5.46708247 3.37629938,4.88773389 C3.8018018,4.30838531 4.3049203,3.80526681 4.88565489,3.37837838 C5.46638947,2.95148995 6.1046431,2.62162162 6.8004158,2.38877339 C7.4961885,2.15592516 8.22938323,2.03950104 9,2.03950104 C9.77061677,2.03950104 10.5031185,2.15592516 11.1975052,2.38877339 C11.8918919,2.62162162 12.5294525,2.95148995 13.1101871,3.37837838 C13.6909217,3.80526681 14.1947332,4.30838531 14.6216216,4.88773389 C15.04851,5.46708247 15.3783784,6.1046431 15.6112266,6.8004158 C15.8440748,7.4961885 15.960499,8.22938323 15.960499,9 C15.960499,9.76784477 15.8440748,10.4996535 15.6112266,11.1954262 C15.3783784,11.8911989 15.04851,12.5294525 14.6216216,13.1101871 C14.1947332,13.6909217 13.6909217,14.1940402 13.1101871,14.6195426 C12.5294525,15.045045 11.8918919,15.3749134 11.1975052,15.6091476 C10.5031185,15.8433818 9.77061677,15.960499 9,15.960499 Z" id="path-1"></path>
    </defs>
    <g id="icon/checkbox/default" stroke="none" stroke-width="1" fill="none" fill-rule="evenodd">
        <g id="icon/checkbox-default" fill-rule="nonzero" fill="#000000">
            <use xlink:href="#path-1"></use>
            <use xlink:href="#path-1"></use>
        </g>
    </g>
</svg>

<svg viewBox="0 0 18 18" xmlns="http://www.w3.org/2000/svg" xmlns:xlink="http://www.w3.org/1999/xlink"><defs><path d="M9 17c.884 0 1.726-.134 2.526-.403a8.005 8.005 0 0 0 3.933-2.871c.49-.667.869-1.4 1.138-2.2.269-.8.403-1.642.403-2.526 0-.884-.134-1.726-.403-2.526a8.005 8.005 0 0 0-2.871-3.933 8.005 8.005 0 0 0-2.2-1.138A7.873 7.873 0 0 0 9 1c-.884 0-1.726.134-2.526.403a8.005 8.005 0 0 0-3.933 2.871c-.49.667-.869 1.4-1.138 2.2A7.873 7.873 0 0 0 1 9c0 .884.134 1.726.403 2.526a8.005 8.005 0 0 0 2.871 3.933c.667.49 1.4.869 2.2 1.138.8.269 1.642.403 2.526.403Zm0-1.04c-.77 0-1.504-.117-2.2-.35a6.994 6.994 0 0 1-3.424-2.5 6.994 6.994 0 0 1-.99-1.915A6.835 6.835 0 0 1 2.037 9c0-.77.116-1.504.35-2.2a6.962 6.962 0 0 1 .99-1.912 7.021 7.021 0 0 1 1.51-1.51A6.885 6.885 0 0 1 9 2.04a6.866 6.866 0 0 1 4.11 1.34c.58.426 1.085.93 1.512 1.509A6.887 6.887 0 0 1 15.96 9a6.872 6.872 0 0 1-1.338 4.11 7 7 0 0 1-3.424 2.5A6.829 6.829 0 0 1 9 15.96Z" id="a"/></defs><g fill-rule="nonzero" fill="#000"><use xlink:href="#a"/><use xlink:href="#a"/></g></svg>
